svgs/sharp-light/folder-user.svg

<svg xmlns="http://www.w3.org/2000/svg" viewBox="0 0 512 512"><!--! Font Awesome Pro 6.6.0 by @fontawesome - https://fontawesome.com License - https://fontawesome.com/license (Commercial License) Copyright 2024 Fonticons, Inc. --><path d="M32 32l192 0 48 64 208 0 32 0 0 32 0 320 0 32-32 0L32 480 0 480l0-32L0 64 0 32l32 0zm240 96l-16 0-9.6-12.8L208 64 32 64l0 384 448 0 0-320-208 0zM256 256a32 32 0 1 0 0-64 32 32 0 1 0 0 64zm0-96a64 64 0 1 1 0 128 64 64 0 1 1 0-128zM177.7 416L144 416l32-96 160 0 32 96-33.7 0-21.3-64-113.9 0-21.3 64z"/></svg>

<svg xmlns="http://www.w3.org/2000/svg" viewBox="0 0 512 512"><!--! Font Awesome Pro 6.4.2 by @fontawesome - https://fontawesome.com License - https://fontawesome.com/license (Commercial License) Copyright 2023 Fonticons, Inc. --><path d="M32 32H224l48 64H480h32v32V448v32H480 32 0V448 64 32H32zm240 96H256l-9.6-12.8L208 64H32V448H480V128H272zM256 256a32 32 0 1 0 0-64 32 32 0 1 0 0 64zm0-96a64 64 0 1 1 0 128 64 64 0 1 1 0-128zM177.7 416H144l32-96H336l32 96H334.3l-21.3-64H199.1l-21.3 64z"/></svg>
